X:4
T:Rid\'ee
R:rid\'ee
H:Also played in Bm
O:Bretagne
D:Skeduz: Rag ar Plinn
Z:id:hn-ridee-4
M:6/4
L:1/8
Q:1/4=200
K:Em
EBAG FGA2 GFED | EBAG FGAF (3ABA GF |
EBAG FGA2 GFED | EBAG FGA2 GFEF ||
G2FD (3GAG FD EFGB | (3ABA GB AFA2 GFED |
EGFD G2FD EFGB | (3ABA GB AFA2 GFE2 ||

